icon/ir/transition-left.svg

<svg stroke-width="1.5" viewBox="0 0 24 24" fill="none" xmlns="http://www.w3.org/2000/svg" height="1em" width="1em">
  <path d="M22 18V6C22 4.34315 20.6569 3 19 3H17C15.3431 3 14 4.34315 14 6V18C14 19.6569 15.3431 21 17 21H19C20.6569 21 22 19.6569 22 18Z" stroke="currentColor" stroke-width="1.5"/>
  <path d="M8 3H6C3.79086 3 2 4.79086 2 7V17C2 19.2091 3.79086 21 6 21H8" stroke="currentColor" stroke-linecap="round" stroke-linejoin="round"/>
  <path d="M14 12H6M6 12L9 9M6 12L9 15" stroke="currentColor" stroke-linecap="round" stroke-linejoin="round"/>
</svg>

<svg width="24" height="24" stroke-width="1.5" fill="none" xmlns="http://www.w3.org/2000/svg"><path d="M22 18V6a3 3 0 0 0-3-3h-2a3 3 0 0 0-3 3v12a3 3 0 0 0 3 3h2a3 3 0 0 0 3-3Z" stroke="currentColor"/><path d="M8 3H6a4 4 0 0 0-4 4v10a4 4 0 0 0 4 4h2M14 12H6m0 0 3-3m-3 3 3 3" stroke="currentColor" stroke-linecap="round" stroke-linejoin="round"/></svg>
